X: 23788
T: Little House Around The Corner, The
R: jig
M: 6/8
K: Dmajor
B|AFD D2 B|AFD D/D/DA,|DFA dfa|~g3 efg|
fdB AFD|D/D/DC DFA|AB/c/d efg|1 fdc d2 B:|2 fdc d2 ^g||
afa geg|fdf ecA|dd/d/d fed|cc/c/c efg|
afa geg|fdf ecA|dd/d/d efg|1 fdc d2 f:|2 fdc d2 B||

